Origami/64x64/apps/peazip.svg

<svg width="64" height="64" version="1" xmlns="http://www.w3.org/2000/svg">
 <rect transform="matrix(0,-1,-1,0,0,0)" x="-60" y="-60" width="56" height="56" rx="3" ry="3" style="fill:#7de63e"/>
 <path d="M 17.752716,17.7403 A 47.013469,47.055468 0 0 0 4.7302627,59.257831 47.013469,47.055468 0 0 0 46.247794,46.259978 47.013469,47.055468 0 0 0 59.269646,4.7424472 47.013469,47.055468 0 0 0 17.752116,17.7401 Z" style="opacity:.2"/>
 <path d="m7 4c-1.6619813 0-3 1.3373658-3 2.9985359v1.0014641c0-1.6611701 1.3380187-2.9985359 3-2.9985359h50c1.661981 0 3 1.3373658 3 2.9985359v-1.0014641c0-1.6611701-1.338019-2.9985359-3-2.9985359h-50z" style="fill:#ffffff;opacity:.1"/>
 <path d="m4 57v1c0 1.661981 1.3380187 3 3 3h50c1.661981 0 3-1.338019 3-3v-1c0 1.661981-1.338019 3-3 3h-50c-1.6619813 0-3-1.338019-3-3z" style="opacity:.2"/>
 <circle cx="32" cy="32" r="12" style="opacity:.3"/>
 <circle cx="32" cy="32" r="8" style="fill:#ffc20c"/>
 <g transform="matrix(1.9999774,0,0,1.9999774,1.1615646e-4,7.008e-4)">
  <circle cx="24" cy="8" r="3" style="opacity:.3"/>
  <circle cx="24" cy="8" r="2" style="fill:#ffc20c"/>
 </g>
 <g transform="matrix(1.9999774,0,0,1.9999774,-31.999522,32.000339)">
  <circle cx="24" cy="8" r="3" style="opacity:.3"/>
  <circle cx="24" cy="8" r="2" style="fill:#ffc20c"/>
 </g>
</svg>

<svg xmlns="http://www.w3.org/2000/svg" width="64" height="64" version="1">
 <rect style="fill:#7de63e" width="56" height="56" x="-60" y="-60" rx="3" ry="3" transform="matrix(0,-1,-1,0,0,0)"/>
 <path style="opacity:0.2" d="M 17.752716,17.7403 A 47.013469,47.055468 0 0 0 4.7302627,59.257831 47.013469,47.055468 0 0 0 46.247794,46.259978 47.013469,47.055468 0 0 0 59.269646,4.7424472 47.013469,47.055468 0 0 0 17.752116,17.7401 Z"/>
 <path style="opacity:0.1;fill:#ffffff" d="M 7,4 C 5.3380187,4 4,5.3373658 4,6.9985359 L 4,8 C 4,6.3388299 5.3380187,5.0014641 7,5.0014641 l 50,0 c 1.661981,0 3,1.3373658 3,2.9985359 L 60,6.9985359 C 60,5.3373658 58.661981,4 57,4 L 7,4 Z"/>
 <path style="opacity:0.2" d="M 4 57 L 4 58 C 4 59.661981 5.3380187 61 7 61 L 57 61 C 58.661981 61 60 59.661981 60 58 L 60 57 C 60 58.661981 58.661981 60 57 60 L 7 60 C 5.3380187 60 4 58.661981 4 57 z"/>
 <circle style="opacity:0.3" cx="32" cy="32" r="12"/>
 <circle style="fill:#ffc20c" cx="32" cy="32" r="8"/>
 <g transform="matrix(1.9999774,0,0,1.9999774,1.1615646e-4,7.008e-4)">
  <circle style="opacity:0.3" cx="24" cy="8" r="3"/>
  <circle style="fill:#ffc20c" cx="24" cy="8" r="2"/>
 </g>
 <g transform="matrix(1.9999774,0,0,1.9999774,-31.999522,32.000339)">
  <circle style="opacity:0.3" cx="24" cy="8" r="3"/>
  <circle style="fill:#ffc20c" cx="24" cy="8" r="2"/>
 </g>
</svg>
